X:1
T:Old 124th (2), 11.10.11.10.10
T:Old 124th (2), 11.10.11.10.10
T:Genevan Psalter, 1551
T:Public Domain Courtesy of the Cyber Hymnal™
C:Genevan Psalter, 1551
Z:Public Domain
Z:Courtesy of the Cyber Hymnal™
%%score ( 1 2 ) ( 3 4 )
L:1/8
Q:1/4=115
M:none
K:F
V:1 treble 
V:2 treble 
V:3 bass 
V:4 bass 
V:1
 [CF]4 [CG]2 [FA]2 | [FB]4 A4 | [DG]2 [DF]2 [CF]2 [CE]2 | [CF]4 [CF]4 | [CA]4 [FB]2 [Ec]2 | %5
 [Dd]4 [Ec]4 | [FB]2 [FA]2 [DG]2 [DF]2 x | [CE]8 x6 | [A,C]4 [A,F]2 [=B,F]2 | [CE]4 [A,F]4 | %10
 [DG]2 [DB]2 [FA]2 [DG]2 | [EA]4 [EA]4 | [Fc]4 [Fc]2 [GB]2 | [FA]4 G4 | A2 z E [Dc]2 [D=B]2 | %15
 [Ec]8 x6 | [FA]4 [EG]2 [DF]2 | [^CE]4 [DF]4 [DG]2 [GB]2 | A4 z2 z2 x4 | F8 |] %20
V:2
 x8 | x4 (F2 E2) | x8 | x8 | x8 | x8 | x9 | x14 | x8 | x8 | x8 | x8 | x8 | x4 D2 E2 | F3 c2 x3 | %15
 x14 | x8 | x12 | (G2 F4) G4 E2 | F8 |] %20
V:3
 [F,A,]4 [E,C]2 [F,C]2 | D4 [F,C]4 | C3 z [C,G,]2 [C,G,]2 | [F,A,]4 [F,A,]4 | %4
 (F,2 E,2) (F,G,) [C,A,]2 | [B,,B,]4 G,2 A,2 | [D,B,]2 [F,C]2 B,3 z x | z2 x12 | %8
 F,4 [D,F,]2 [D,F,]2 | (G,2 C2) (B,2 A,2) | [B,,G,]2 [G,,G,]2 [A,,C]2 [B,,D]2 | [A,,^C]4 [A,,C]4 | %12
 [A,,C]4 [D,A,]2 [E,G,]2 | [F,C]4 B,4 | [A,C]3 [G,=B,] [F,A,]2 G,2 | z2 x12 | %16
 [F,C]4 [C,C]2 [D,A,]2 | [A,,A,]4 [D,A,]4 [B,,B,]2 [G,,D]2 | [A,,C]4 [C,C]4 x4 | [F,A,]8 |] %20
V:4
 x8 | (B,,2 D,2) x4 | B,,2 G,,2 A, x3 | x8 | F,4 D,2 x2 | x4 C,4 | x4 B,,2 G,,2 A, | %7
 [C,G,]8 B,,2 A,,2 G,,2 | F,4 x4 | C,4 D,4 | x8 | x8 | x8 | x8 | x8 | ([C,G,]8 B,,2) A,,2 G,,2 | %16
 x8 | x12 | x12 | x8 |] %20

